X: 2377
T: Polska efter Olof Andersson
S: efter Olof Andersson
O: Glöte, Härjedalen
B: EÖ, nr 665
R: Polska
Z: Nils L
M: 3/4
L: 1/8
K: D
PE>D CD ((3EFG) | A2 G>B A2 | Pc>B ^GA BG | (3ABc AG FE |
{/F}E>D CD (3EFG | A2 GB A2 | Pc>B ^G>A B>G | (3ABc A4 ::
A2 d2 fa | (3geg (3fdf ec | d2 E2 F2 | (3GEG (3FDF EC |
D2 d2 fa | (3geg (3fdf ec | d2 E2 F2 | (3GEG (3FDF E>C |
(3DEF D4 :|
(:musicend:)
(:music:)
